X: 28726
T: My Father Was A Dutchman
R: waltz
M: 3/4
K: Gminor
G2 GF GA|B2 BA Bc|d2 e2 B2|d2 c2 B2|
A2 AG AB|cB AG FE|D2 E2 D2|B4 D2|
G2 GF GA|B2 BA Bc|d2 e2 B2|d2 c2 B2|
A2 AG AB|cB AG FE|D2 E2 F2|G4:|
DG B2 B2|DG B2 B2|DG B2 c2|d2 e2 d2|
DF A2 A2|DF A2 A2|DF A2 B2|c2 e2 d2|
DG B2 B2|DG B2 B2|DG B2 c2|d2 e2 d2|
B2|A2 AG AB|cB AG FE|D2 E2 F2|G4:|
G2 G^F GA|B2 BA Bc|d2 e2 B2|d2 c2 B2|
A2 AG AB|cB AG ^FE|D2 E2 D2|B4 D2|
G2 G^F GA|B2 BA Bc|d2 e2 B2|d2 c2 B2|
A2 AG AB|cB AG ^FE|D2 E2 ^F2|G4:|
DG B2 B2|DG B2 B2|DG B2 c2|d2 e2 d2|
DF A2 A2|DF A2 A2|DF A2 B2|c2 e2 d2|
DG B2 B2|DG B2 B2|DG B2 c2|d2 e2 d2|
B2|A2 AG AB|cB AG FE|D2 E2 F2|G4:|

